X:1
T:Title
%%score { ( 1 3 ) | 2 }
L:1/8
Q:1/4=100
M:4/4
K:C
V:1 treble nm="Grand Piano"
V:3 treble 
V:2 bass 
V:1
 C2 E>F GAGE | [CGc]2 d>d e2 z2 | f>e d2 [Ge]>[Gd] [Gc]2 | [^Fd]>[Ac] [GB][FA] z DCB, | %4
w: John~R.~Sweney * * * * * *||||
 C2 E>F GAGE | [CGc]2 d>d e2 z2 | [Af]>[Ge] [Fd][Af] [Ge][Fd][Ac][FA] | [EG]2 [FB]2 [Ec]2 z2 | %8
w: ||||
 [EG]4 [Ge]2 d>c | [EG]4 [Ge]2 [Ec]2 | d>c BF B2 A2 | [EG]>[_E^F] [=FA]>[=EG] E2 F2 | %12
w: ||||
 z2 E2 [Ge]2 d>c | [EG]4 [Ge]2 [Ec]2 | [DB]>[DB] [^Fe]>[Fd] [Fc]>F B>A | G2 G>G G2 z2 | %16
w: ||||
 G2 f2 e>d A>B | [Fd]>[Ec] [CE]>[FA] [EG]4 | G2 f2 e>d A>B | [Fd]>[Ec] [CE]>[FA] [EG]4 | %20
w: ||||
 A>B c>d e2 E2 | A>B c>d e4 | d>[Af] [Ge]>d c>B A>B | d4 [Ec]2 z2 |] %24
w: ||||
V:2
 C,2 E,>F, G,A,G,E, | E,2[K:treble] [G,B,G]>[G,B,G] [CG]2 z2 | %2
 [G,DG]>[G,CG] [G,B,G]2[K:bass] [C,C]>[D,B,] [E,C]2 | [D,A,]>[D,D] [D,D][D,C] [G,B,]F,E,D, | %4
 C,2 E,>F, G,A,G,E, | E,2[K:treble] [G,B,G]>[G,B,G] [CG]2 z2 | %6
 [D,D]>[E,C] [F,A,][D,D] [E,C][F,A,][F,C][F,C] | [G,C]2 [G,,G,]2 [C,G,]2 z2 | %8
 [C,C]2 [C,C]2 [C,C]2[K:treble] F>E | [C,C]2 [C,C]2 [C,C]2 [C,G,]2 | %10
 [G,B,F]>[G,A,F] [G,DF][G,B,D] [G,DG]2 [G,B,F]2 | [C,C]>[C,C] [C,C]>[C,C] [C,G,C]2 [D,G,B,]2 | %12
 [E,G,C]2 [C,C]2 [C,C]2[K:treble] F>E | [C,C]2 [C,C]2 [C,C]2 [C,G,]2 | %14
 [D,G,]>[D,G,] [D,C]>[D,B,] [D,A,]>[D,A,D] [D,D]>[D,CD] | [G,B,D]2 [G,B,D]>[G,B,D] [G,B,D]2 z2 | %16
 [G,B,]2 [G,DG]2 [G,CG]>[G,FG] [G,DF]>[G,DF] | [C,C]>[C,G,] [C,G,]>[C,C] [C,C]4 | %18
 [G,B,]2[K:treble] [G,DG]2 [G,CG]>[G,FG] [G,DF]>[G,DF] | [C,B,]>[C,G,] [C,G,]>[C,C] [C,C]4 | %20
 A,>B, C>D E2 E,2 | A,>B, C>D E4 | %22
 [F,A,F]>[D,D] [E,C]>[K:treble][F,A,F] [G,E]>[G,D] [G,CF]>[G,DF] | [G,,B,F]4 [C,C]2 z2 |] %24
V:3
 x8 | x8 | x8 | z4 G4 | x8 | x8 | x8 | x8 | x8 | x8 | x8 | x8 | G4 z4 | x8 | x8 | x8 | x8 | x8 | %18
 x8 | x8 | x8 | x8 | x8 | x8 |] %24

